X:1
T:The Atholl Highlanders 
F:http://simonwascher.info
Z:abc transcription Simon Wascher
M:6/8
L:1/8
K:Dmixo
z |\
A3 A3 | AFD EFG | A2A AFD | EFG FED |\
A3 A3 | AFD EFG | A2A BAG | FGE D2 :|
|: A |\
AFA AFA | BGB BGB | AFA AFD | E2F GFE |\
AFA AFA | BGB BGB | A2A BAG | FGE D2 :|
|: A |\
d2A AGF | d2A AGF | d2A AGF | E2F GFE |\
d2A AGF | d2A AGF | d2A BAG | FGE D2 :|
|: z |\
F3 FGA | G3 GFE | F3 FED | E2F GFE |\
F3 FGA | G3 GAB | A2A BAG | FGE D2 :|
%%wordsfont Times-Italic 11pt
W:aus Simon Waschers TradArchiv
